ibeto-front-end/src/components/images/whyparticipate/lightbulb.svg

<svg width="100" height="100" viewBox="0 0 100 100" fill="none" xmlns="http://www.w3.org/2000/svg">
<rect width="100" height="100" fill="#E5E5E5"/>
<rect width="100" height="100" fill="white"/>
<mask id="path-1-inside-1" fill="white">
<path fill-rule="evenodd" clip-rule="evenodd" d="M49.2653 3.20275C48.3415 3.66821 48.3284 3.75674 48.3214 9.57828C48.3151 14.8733 48.3358 15.1773 48.73 15.549C48.9586 15.7645 49.3458 15.9967 49.5906 16.065C50.2147 16.2389 51.1725 15.8456 51.456 15.2989C51.6159 14.9906 51.6947 13.0601 51.6947 9.45115V4.06351L51.0772 3.52104C50.4191 2.94293 49.946 2.85979 49.2653 3.20275ZM22.2158 10.301C21.6205 10.8238 21.5645 11.3087 22.0117 12.0685C22.7618 13.343 28.1128 20.5551 28.5896 20.9343C29.788 21.8876 31.353 21.0211 31.2277 19.4735C31.2002 19.1342 25.2808 10.9091 24.5991 10.2629C23.9905 9.68611 22.8956 9.70356 22.2158 10.301ZM76.7667 10.3468C76.2891 10.4554 69.2285 19.7408 69.2285 20.2604C69.2285 20.7325 70.3299 21.723 70.8553 21.723C71.0706 21.723 71.4664 21.5879 71.7349 21.4227C72.461 20.9758 78.946 12.3231 78.946 11.8009C78.946 11.1096 78.7307 10.7811 78.0858 10.488C77.4679 10.2072 77.4085 10.2009 76.7667 10.3468ZM47.8922 23.5787C45.3777 23.7719 43.6919 24.0733 41.4676 24.7277C30.0464 28.0882 22.3499 37.3687 22.3353 47.7982C22.3265 54.1901 25.1156 60.2737 30.1632 64.8724C31.1715 65.7911 32.3837 67.0306 32.8564 67.6269C34.4461 69.6309 35.6356 73.8187 35.6384 77.421C35.6394 78.7565 35.7117 79.1004 36.0776 79.5089L36.5153 79.9979H49.9831H63.451L63.9307 79.5493C64.3528 79.1546 64.4219 78.8599 64.5064 77.0903C64.6745 73.5665 65.408 70.5729 66.6273 68.4335C66.9074 67.9422 68.2379 66.4811 69.5842 65.1864C72.4462 62.4341 73.7623 60.7872 75.1604 58.2085C77.3867 54.1023 78.2759 49.4628 77.6719 45.1024C76.4057 35.9597 69.4986 28.2435 59.6759 24.9976C56.2427 23.863 51.5496 23.2979 47.8922 23.5787ZM6.08384 25.8243C4.95513 26.2171 4.62896 27.4844 5.48368 28.1566C6.42543 28.8973 16.1776 33.4151 16.8346 33.4151C18.1245 33.4151 18.8199 31.9289 17.9474 31.0366C17.5794 30.6602 7.82053 25.9389 7.01525 25.7477C6.78287 25.6926 6.36375 25.7271 6.08384 25.8243ZM92.8885 25.7549C92.027 26.0407 82.3769 30.7109 82.0197 31.0149C81.0373 31.8506 81.7902 33.4151 83.1748 33.4151C83.798 33.4151 93.6724 28.8465 94.5257 28.1633C95.1356 27.675 95.1617 26.6896 94.5785 26.1772C94.3461 25.973 94.0687 25.806 93.9621 25.806C93.8554 25.806 93.6414 25.7709 93.4867 25.7278C93.3319 25.685 93.0628 25.697 92.8885 25.7549ZM53.7379 26.6404C61.7337 27.7795 68.4977 32.1878 71.9644 38.5188C72.896 40.2199 73.7604 42.612 74.0773 44.3648C74.3931 46.1122 74.3475 49.8225 73.9881 51.6332C73.1632 55.7884 70.7609 59.9046 67.458 62.8218C66.7469 63.4497 65.8227 64.3349 65.4036 64.7891C63.133 67.2504 61.6541 70.9825 61.2521 75.2654L61.0953 76.9357L50.0843 76.9837L39.0733 77.0318L38.9409 76.4502C38.868 76.1302 38.8084 75.5558 38.8084 75.1737C38.8084 73.9948 38.1907 71.2914 37.5086 69.4837C36.5884 67.0456 35.3479 65.3032 32.9481 63.0778C29.9613 60.3077 28.7413 58.7274 27.4269 55.9268C22.5645 45.5665 27.7252 33.5679 39.1796 28.6013C43.6437 26.6658 48.9246 25.9544 53.7379 26.6404ZM49.2653 29.9275C48.1987 30.4648 48.0143 31.4302 48.8398 32.1555C49.2921 32.5529 49.6232 32.6329 51.2274 32.7329C59.5135 33.2496 66.2507 38.5478 67.8691 45.8195C68.0357 46.5685 68.1722 47.554 68.1722 48.0094C68.1722 48.9253 68.6057 49.8252 69.1323 50.0029C69.8191 50.2343 70.527 50.1077 71.0336 49.6625C71.4802 49.2703 71.5522 49.0356 71.5522 47.9751C71.5522 47.2973 71.3564 45.8987 71.117 44.8669C69.3138 37.0935 62.3673 31.2706 53.3669 29.9882C51.0166 29.6534 49.8439 29.636 49.2653 29.9275ZM38.1747 81.8376C36.1486 82.2086 34.7947 83.6002 34.7947 85.3115C34.7947 86.9777 35.5653 88.0652 37.224 88.7399C38.0141 89.0613 38.8327 89.0839 49.8148 89.0877C58.0453 89.0904 61.7753 89.0285 62.2785 88.8805C65.7335 87.8643 66.2821 83.9908 63.2082 82.3177L62.1854 81.761L50.5497 81.7315C44.1501 81.7153 38.5813 81.763 38.1747 81.8376ZM61.5812 84.8603C61.9619 85.1947 61.8867 85.7136 61.4261 85.9302C61.1593 86.0555 57.192 86.1223 50.0047 86.1223C42.8173 86.1223 38.85 86.0555 38.5832 85.9302C38.1903 85.7454 38.0236 85.0177 38.3156 84.7614C38.3929 84.6933 43.6023 84.6376 49.8921 84.6376C58.5048 84.6376 61.3902 84.6925 61.5812 84.8603ZM41.2378 90.744C40.2884 90.9525 39.7804 91.2357 39.0575 91.9589C37.268 93.7493 37.884 96.4492 40.3256 97.518L41.4264 98H49.9472C59.2308 98 59.3643 97.9866 60.6388 96.923C61.5444 96.1673 61.9029 95.4201 61.9029 94.2882C61.9029 93.1522 61.5396 92.3986 60.6388 91.6662C59.3876 90.6488 59.6142 90.6717 50.4272 90.6369C45.7216 90.6193 41.5864 90.6674 41.2378 90.744ZM58.4678 93.9388C59.0103 94.8292 58.7547 94.8574 50.0315 94.8661C41.8792 94.8743 41.3434 94.8338 41.3434 94.2099C41.3434 93.578 41.7638 93.5459 50.0395 93.5459C58.1627 93.5459 58.2306 93.549 58.4678 93.9388Z"/>
</mask>
<path fill-rule="evenodd" clip-rule="evenodd" d="M49.2653 3.20275C48.3415 3.66821 48.3284 3.75674 48.3214 9.57828C48.3151 14.8733 48.3358 15.1773 48.73 15.549C48.9586 15.7645 49.3458 15.9967 49.5906 16.065C50.2147 16.2389 51.1725 15.8456 51.456 15.2989C51.6159 14.9906 51.6947 13.0601 51.6947 9.45115V4.06351L51.0772 3.52104C50.4191 2.94293 49.946 2.85979 49.2653 3.20275ZM22.2158 10.301C21.6205 10.8238 21.5645 11.3087 22.0117 12.0685C22.7618 13.343 28.1128 20.5551 28.5896 20.9343C29.788 21.8876 31.353 21.0211 31.2277 19.4735C31.2002 19.1342 25.2808 10.9091 24.5991 10.2629C23.9905 9.68611 22.8956 9.70356 22.2158 10.301ZM76.7667 10.3468C76.2891 10.4554 69.2285 19.7408 69.2285 20.2604C69.2285 20.7325 70.3299 21.723 70.8553 21.723C71.0706 21.723 71.4664 21.5879 71.7349 21.4227C72.461 20.9758 78.946 12.3231 78.946 11.8009C78.946 11.1096 78.7307 10.7811 78.0858 10.488C77.4679 10.2072 77.4085 10.2009 76.7667 10.3468ZM47.8922 23.5787C45.3777 23.7719 43.6919 24.0733 41.4676 24.7277C30.0464 28.0882 22.3499 37.3687 22.3353 47.7982C22.3265 54.1901 25.1156 60.2737 30.1632 64.8724C31.1715 65.7911 32.3837 67.0306 32.8564 67.6269C34.4461 69.6309 35.6356 73.8187 35.6384 77.421C35.6394 78.7565 35.7117 79.1004 36.0776 79.5089L36.5153 79.9979H49.9831H63.451L63.9307 79.5493C64.3528 79.1546 64.4219 78.8599 64.5064 77.0903C64.6745 73.5665 65.408 70.5729 66.6273 68.4335C66.9074 67.9422 68.2379 66.4811 69.5842 65.1864C72.4462 62.4341 73.7623 60.7872 75.1604 58.2085C77.3867 54.1023 78.2759 49.4628 77.6719 45.1024C76.4057 35.9597 69.4986 28.2435 59.6759 24.9976C56.2427 23.863 51.5496 23.2979 47.8922 23.5787ZM6.08384 25.8243C4.95513 26.2171 4.62896 27.4844 5.48368 28.1566C6.42543 28.8973 16.1776 33.4151 16.8346 33.4151C18.1245 33.4151 18.8199 31.9289 17.9474 31.0366C17.5794 30.6602 7.82053 25.9389 7.01525 25.7477C6.78287 25.6926 6.36375 25.7271 6.08384 25.8243ZM92.8885 25.7549C92.027 26.0407 82.3769 30.7109 82.0197 31.0149C81.0373 31.8506 81.7902 33.4151 83.1748 33.4151C83.798 33.4151 93.6724 28.8465 94.5257 28.1633C95.1356 27.675 95.1617 26.6896 94.5785 26.1772C94.3461 25.973 94.0687 25.806 93.9621 25.806C93.8554 25.806 93.6414 25.7709 93.4867 25.7278C93.3319 25.685 93.0628 25.697 92.8885 25.7549ZM53.7379 26.6404C61.7337 27.7795 68.4977 32.1878 71.9644 38.5188C72.896 40.2199 73.7604 42.612 74.0773 44.3648C74.3931 46.1122 74.3475 49.8225 73.9881 51.6332C73.1632 55.7884 70.7609 59.9046 67.458 62.8218C66.7469 63.4497 65.8227 64.3349 65.4036 64.7891C63.133 67.2504 61.6541 70.9825 61.2521 75.2654L61.0953 76.9357L50.0843 76.9837L39.0733 77.0318L38.9409 76.4502C38.868 76.1302 38.8084 75.5558 38.8084 75.1737C38.8084 73.9948 38.1907 71.2914 37.5086 69.4837C36.5884 67.0456 35.3479 65.3032 32.9481 63.0778C29.9613 60.3077 28.7413 58.7274 27.4269 55.9268C22.5645 45.5665 27.7252 33.5679 39.1796 28.6013C43.6437 26.6658 48.9246 25.9544 53.7379 26.6404ZM49.2653 29.9275C48.1987 30.4648 48.0143 31.4302 48.8398 32.1555C49.2921 32.5529 49.6232 32.6329 51.2274 32.7329C59.5135 33.2496 66.2507 38.5478 67.8691 45.8195C68.0357 46.5685 68.1722 47.554 68.1722 48.0094C68.1722 48.9253 68.6057 49.8252 69.1323 50.0029C69.8191 50.2343 70.527 50.1077 71.0336 49.6625C71.4802 49.2703 71.5522 49.0356 71.5522 47.9751C71.5522 47.2973 71.3564 45.8987 71.117 44.8669C69.3138 37.0935 62.3673 31.2706 53.3669 29.9882C51.0166 29.6534 49.8439 29.636 49.2653 29.9275ZM38.1747 81.8376C36.1486 82.2086 34.7947 83.6002 34.7947 85.3115C34.7947 86.9777 35.5653 88.0652 37.224 88.7399C38.0141 89.0613 38.8327 89.0839 49.8148 89.0877C58.0453 89.0904 61.7753 89.0285 62.2785 88.8805C65.7335 87.8643 66.2821 83.9908 63.2082 82.3177L62.1854 81.761L50.5497 81.7315C44.1501 81.7153 38.5813 81.763 38.1747 81.8376ZM61.5812 84.8603C61.9619 85.1947 61.8867 85.7136 61.4261 85.9302C61.1593 86.0555 57.192 86.1223 50.0047 86.1223C42.8173 86.1223 38.85 86.0555 38.5832 85.9302C38.1903 85.7454 38.0236 85.0177 38.3156 84.7614C38.3929 84.6933 43.6023 84.6376 49.8921 84.6376C58.5048 84.6376 61.3902 84.6925 61.5812 84.8603ZM41.2378 90.744C40.2884 90.9525 39.7804 91.2357 39.0575 91.9589C37.268 93.7493 37.884 96.4492 40.3256 97.518L41.4264 98H49.9472C59.2308 98 59.3643 97.9866 60.6388 96.923C61.5444 96.1673 61.9029 95.4201 61.9029 94.2882C61.9029 93.1522 61.5396 92.3986 60.6388 91.6662C59.3876 90.6488 59.6142 90.6717 50.4272 90.6369C45.7216 90.6193 41.5864 90.6674 41.2378 90.744ZM58.4678 93.9388C59.0103 94.8292 58.7547 94.8574 50.0315 94.8661C41.8792 94.8743 41.3434 94.8338 41.3434 94.2099C41.3434 93.578 41.7638 93.5459 50.0395 93.5459C58.1627 93.5459 58.2306 93.549 58.4678 93.9388Z" fill="#282626" stroke="white" stroke-width="2" mask="url(#path-1-inside-1)"/>
</svg>

<svg xmlns="http://www.w3.org/2000/svg" width="100" height="100" fill="none" xmlns:v="https://vecta.io/nano"><path fill="#e5e5e5" d="M0 0h100v100H0z"/><path fill="#fff" d="M0 0h100v100H0z"/><mask id="A" fill="#fff"><path fill-rule="evenodd" d="M49.265 3.203c-.924.465-.937.554-.944 6.376-.006 5.295.014 5.599.409 5.971.229.216.616.448.861.516.624.174 1.582-.219 1.865-.766.16-.308.239-2.239.239-5.848V4.064l-.617-.542c-.658-.578-1.131-.661-1.812-.318zm-27.05 7.098c-.595.523-.651 1.008-.204 1.768.75 1.274 6.101 8.487 6.578 8.866 1.198.953 2.763.087 2.638-1.461-.027-.339-5.947-8.564-6.629-9.211-.609-.577-1.703-.559-2.383.038zm54.551.046c-.478.109-7.538 9.394-7.538 9.914 0 .472 1.101 1.463 1.627 1.463.215 0 .611-.135.88-.3.726-.447 7.211-9.1 7.211-9.622 0-.691-.215-1.02-.86-1.313-.618-.281-.677-.287-1.319-.141zM47.892 23.579c-2.515.193-4.2.495-6.425 1.149-11.421 3.361-19.118 12.641-19.132 23.071-.009 6.392 2.78 12.475 7.828 17.074 1.008.919 2.22 2.158 2.693 2.755 1.59 2.004 2.779 6.192 2.782 9.794.001 1.335.073 1.679.439 2.088l.438.489h13.468 13.468l.48-.449c.422-.395.491-.689.576-2.459.168-3.524.902-6.517 2.121-8.657.28-.491 1.611-1.952 2.957-3.247 2.862-2.752 4.178-4.399 5.576-6.978 2.226-4.106 3.115-8.746 2.511-13.106-1.266-9.143-8.173-16.859-17.996-20.105-3.433-1.135-8.126-1.7-11.784-1.419zM6.084 25.824c-1.129.393-1.455 1.66-.6 2.332.942.741 10.694 5.259 11.351 5.259 1.29 0 1.985-1.486 1.113-2.379-.368-.376-10.127-5.098-10.932-5.289-.232-.055-.652-.021-.931.077zm86.805-.069c-.861.286-10.512 4.956-10.869 5.26-.982.836-.23 2.4 1.155 2.4.623 0 10.498-4.569 11.351-5.252a1.33 1.33 0 0 0 .053-1.986c-.232-.204-.51-.371-.616-.371a2.22 2.22 0 0 1-.475-.078c-.155-.043-.424-.031-.598.027zm-39.151.886c7.996 1.139 14.76 5.547 18.226 11.878.932 1.701 1.796 4.093 2.113 5.846.316 1.747.27 5.458-.089 7.268-.825 4.155-3.227 8.271-6.53 11.189-.711.628-1.635 1.513-2.054 1.967-2.271 2.461-3.749 6.193-4.151 10.476l-.157 1.67-11.011.048-11.011.048-.132-.582c-.073-.32-.133-.894-.133-1.276 0-1.179-.618-3.882-1.3-5.69-.92-2.438-2.161-4.18-4.561-6.406-2.987-2.77-4.207-4.35-5.521-7.151-4.862-10.36.298-22.359 11.753-27.325 4.464-1.935 9.745-2.647 14.558-1.961zm-4.473 3.287c-1.067.537-1.251 1.503-.426 2.228.452.397.783.477 2.388.577 8.286.517 15.023 5.815 16.642 13.087.167.749.303 1.735.303 2.19 0 .916.433 1.816.96 1.993.687.231 1.395.105 1.901-.34.447-.392.519-.627.519-1.687 0-.678-.196-2.076-.435-3.108-1.803-7.773-8.75-13.596-17.75-14.879-2.35-.335-3.523-.352-4.102-.061zm-11.091 51.91c-2.026.371-3.38 1.763-3.38 3.474 0 1.666.771 2.754 2.429 3.428.79.321 1.609.344 12.591.348 8.231.003 11.961-.059 12.464-.207 3.455-1.016 4.004-4.89.93-6.563l-1.023-.557-11.636-.029c-6.4-.016-11.968.032-12.375.106zm23.407 3.023c.381.334.305.853-.155 1.07-.267.125-4.234.192-11.421.192s-11.155-.067-11.422-.192c-.393-.185-.56-.912-.268-1.169.077-.068 5.287-.124 11.576-.124 8.613 0 11.498.055 11.689.223zm-20.343 5.884c-.949.209-1.457.492-2.18 1.215-1.789 1.79-1.173 4.49 1.268 5.559l1.101.482h8.521c9.284 0 9.417-.013 10.692-1.077.906-.756 1.264-1.503 1.264-2.635s-.363-1.89-1.264-2.622c-1.251-1.017-1.025-.995-10.212-1.029-4.706-.018-8.841.031-9.189.107zm17.23 3.195c.543.89.287.919-8.436.927-8.152.008-8.688-.032-8.688-.656 0-.632.42-.664 8.696-.664 8.123 0 8.191.003 8.428.393z"/></mask><path fill-rule="evenodd" d="M49.265 3.203c-.924.465-.937.554-.944 6.376-.006 5.295.014 5.599.409 5.971.229.216.616.448.861.516.624.174 1.582-.219 1.865-.766.16-.308.239-2.239.239-5.848V4.064l-.617-.542c-.658-.578-1.131-.661-1.812-.318zm-27.05 7.098c-.595.523-.651 1.008-.204 1.768.75 1.274 6.101 8.487 6.578 8.866 1.198.953 2.763.087 2.638-1.461-.027-.339-5.947-8.564-6.629-9.211-.609-.577-1.703-.559-2.383.038zm54.551.046c-.478.109-7.538 9.394-7.538 9.914 0 .472 1.101 1.463 1.627 1.463.215 0 .611-.135.88-.3.726-.447 7.211-9.1 7.211-9.622 0-.691-.215-1.02-.86-1.313-.618-.281-.677-.287-1.319-.141zM47.892 23.579c-2.515.193-4.2.495-6.425 1.149-11.421 3.361-19.118 12.641-19.132 23.071-.009 6.392 2.78 12.475 7.828 17.074 1.008.919 2.22 2.158 2.693 2.755 1.59 2.004 2.779 6.192 2.782 9.794.001 1.335.073 1.679.439 2.088l.438.489h13.468 13.468l.48-.449c.422-.395.491-.689.576-2.459.168-3.524.902-6.517 2.121-8.657.28-.491 1.611-1.952 2.957-3.247 2.862-2.752 4.178-4.399 5.576-6.978 2.226-4.106 3.115-8.746 2.511-13.106-1.266-9.143-8.173-16.859-17.996-20.105-3.433-1.135-8.126-1.7-11.784-1.419zM6.084 25.824c-1.129.393-1.455 1.66-.6 2.332.942.741 10.694 5.259 11.351 5.259 1.29 0 1.985-1.486 1.113-2.379-.368-.376-10.127-5.098-10.932-5.289-.232-.055-.652-.021-.931.077zm86.805-.069c-.861.286-10.512 4.956-10.869 5.26-.982.836-.23 2.4 1.155 2.4.623 0 10.498-4.569 11.351-5.252a1.33 1.33 0 0 0 .053-1.986c-.232-.204-.51-.371-.616-.371a2.22 2.22 0 0 1-.475-.078c-.155-.043-.424-.031-.598.027zm-39.151.886c7.996 1.139 14.76 5.547 18.226 11.878.932 1.701 1.796 4.093 2.113 5.846.316 1.747.27 5.458-.089 7.268-.825 4.155-3.227 8.271-6.53 11.189-.711.628-1.635 1.513-2.054 1.967-2.271 2.461-3.749 6.193-4.151 10.476l-.157 1.67-11.011.048-11.011.048-.132-.582c-.073-.32-.133-.894-.133-1.276 0-1.179-.618-3.882-1.3-5.69-.92-2.438-2.161-4.18-4.561-6.406-2.987-2.77-4.207-4.35-5.521-7.151-4.862-10.36.298-22.359 11.753-27.325 4.464-1.935 9.745-2.647 14.558-1.961zm-4.473 3.287c-1.067.537-1.251 1.503-.426 2.228.452.397.783.477 2.388.577 8.286.517 15.023 5.815 16.642 13.087.167.749.303 1.735.303 2.19 0 .916.433 1.816.96 1.993.687.231 1.395.105 1.901-.34.447-.392.519-.627.519-1.687 0-.678-.196-2.076-.435-3.108-1.803-7.773-8.75-13.596-17.75-14.879-2.35-.335-3.523-.352-4.102-.061zm-11.091 51.91c-2.026.371-3.38 1.763-3.38 3.474 0 1.666.771 2.754 2.429 3.428.79.321 1.609.344 12.591.348 8.231.003 11.961-.059 12.464-.207 3.455-1.016 4.004-4.89.93-6.563l-1.023-.557-11.636-.029c-6.4-.016-11.968.032-12.375.106zm23.407 3.023c.381.334.305.853-.155 1.07-.267.125-4.234.192-11.421.192s-11.155-.067-11.422-.192c-.393-.185-.56-.912-.268-1.169.077-.068 5.287-.124 11.576-.124 8.613 0 11.498.055 11.689.223zm-20.343 5.884c-.949.209-1.457.492-2.18 1.215-1.789 1.79-1.173 4.49 1.268 5.559l1.101.482h8.521c9.284 0 9.417-.013 10.692-1.077.906-.756 1.264-1.503 1.264-2.635s-.363-1.89-1.264-2.622c-1.251-1.017-1.025-.995-10.212-1.029-4.706-.018-8.841.031-9.189.107zm17.23 3.195c.543.89.287.919-8.436.927-8.152.008-8.688-.032-8.688-.656 0-.632.42-.664 8.696-.664 8.123 0 8.191.003 8.428.393z" fill="#282626" stroke="#fff" stroke-width="2" mask="url(#A)"/></svg>
